X: 16
T:Les bougnettes
O:France
A:Savoie
C:Trad.
R:Farandole
M:6/8
L:1/8
Q:3/8=120
K:C
c2e g2a|g2e c3|cBc d2d|dcd e2c|c2e g2a|g2e c3|cBc d2f|e2 d c3::
w:En pas-sant par le Bo-nant, Y'a des bou-gnet-tes, Y'a des bou-gnet-tes, En pas-sant par le Bo-nant, Y'a des bou-gnet-tes,et ma-ta-fan
w:En pas-sant les Py-ré-nnées Y'a de la nei-ge, Y'a de la nei-ge, En pas-sant les Py-ré-nnées Y'a de la nei-ge jus-qu'au nez
w:En pas-sant le ca-ni-gou Y'a de la nei-ge, Y'a de la nei-ge, En pas-sant le ca-ni-gou Y'a de la nei-ge jus-qu'au cou
w:En pas-sant l'Hi-ma-la-ya Y'a de la nei-ge, Y'a de la nei-ge, En pas-sant l'Hi-ma-la-ya Y'a de la nei-ge jus-que là
ggg g2e|ggg g2e|ggg a2g|f2e f3|fff f2d|fff f2d|fff g2f|1 e2d e3:|2c6|]
W:En passant le canigou
W:En passant le ...

%%footer $D   Galouvielle-MBe 2006 \n--- (--)
